img/payments/Tele2.svg

<svg width="108" height="108" viewBox="0 0 108 108" fill="none" xmlns="http://www.w3.org/2000/svg">
<path d="M2 54C2 25.2812 25.2812 2 54 2C82.7188 2 106 25.2812 106 54C106 82.7188 82.7188 106 54 106C25.2812 106 2 82.7188 2 54Z" fill="#020307"/>
<path d="M18.5879 50.536V54.0226L28.603 52.988V49.2143L18.5879 50.536ZM21.7839 54.2347V66.1822H25.4505V53.8827L21.7839 54.2347ZM29.9555 49.0358V66.1822H33.8191V48.5256L29.9555 49.0358ZM34.5389 48.4305V52.3749L40.1179 51.7985V47.6944L34.5389 48.4305ZM34.5389 55.3107V59.327L38.2012 59.1394V55.0147L34.5389 55.3107ZM34.5389 62.2219V66.1822H40.1179V62.0638L34.5389 62.2219ZM54.5459 45.7839V66.1822H59.6108V45.1154L54.5459 45.7839ZM60.5566 44.9904V49.6824L67.9377 48.9203V44.0159L60.5566 44.9904ZM60.5566 53.2112V57.9902L65.3945 57.7421V52.8221L60.5566 53.2112ZM60.5566 61.4833V66.1822H67.9377V61.274L60.5566 61.4833ZM41.5941 47.4992V66.1822H45.9952V46.9181L41.5941 47.4992ZM46.8166 61.874V66.182H53.205V61.693L46.8166 61.874ZM84.4857 43.7853C82.885 42.3649 80.5379 41.7823 77.9708 42.1287V47.3328C79.0103 47.2786 79.8527 47.6409 80.228 48.3704C80.8207 49.5205 80.2093 51.2462 78.7669 52.845C76.5407 55.3122 70.6207 60.3621 70.6207 60.3621L79.1191 60.0997C84.3117 55.3354 86.1764 52.4435 86.511 48.8341C86.6868 46.9246 85.9488 45.0847 84.4857 43.7853ZM86.8104 66.1822V60.7369L69.5733 61.2246L86.8104 66.1822ZM69.5733 61.2244L69.575 66.182H86.8104L69.5733 61.2244ZM76.9799 42.2455C71.9723 43.2471 69.5133 46.7069 69.7971 52.3525L75.1363 51.9075C74.893 48.718 75.9318 47.9614 76.9824 47.5454L76.9799 42.2455Z" fill="white"/>
<path d="M54 104.775C25.9577 104.775 3.225 82.0423 3.225 54H0.775C0.775 83.3954 24.6046 107.225 54 107.225V104.775ZM104.775 54C104.775 82.0423 82.0423 104.775 54 104.775V107.225C83.3954 107.225 107.225 83.3954 107.225 54H104.775ZM54 3.225C82.0423 3.225 104.775 25.9577 104.775 54H107.225C107.225 24.6046 83.3954 0.775 54 0.775V3.225ZM54 0.775C24.6046 0.775 0.775 24.6046 0.775 54H3.225C3.225 25.9577 25.9577 3.225 54 3.225V0.775Z" fill="white"/>
</svg>

<svg width="108" height="108" fill="none" xmlns="http://www.w3.org/2000/svg"><path d="M2 54C2 25.281 25.281 2 54 2s52 23.281 52 52-23.281 52-52 52S2 82.719 2 54z" fill="#020307"/><path d="M18.588 50.536v3.487l10.015-1.035v-3.774l-10.015 1.322zm3.196 3.699v11.947h3.667v-12.3l-3.667.353zm8.172-5.2v17.147h3.863V48.526l-3.864.51zm4.583-.604v3.944l5.579-.577v-4.104l-5.58.736zm0 6.88v4.016l3.662-.188v-4.124l-3.662.296zm0 6.91v3.961h5.579v-4.118l-5.58.158zm20.007-16.437v20.398h5.065V45.115l-5.065.669zm6.01-.794v4.692l7.382-.762v-4.904l-7.381.974zm0 8.221v4.78l4.838-.249v-4.92l-4.837.39zm0 8.272v4.7h7.382v-4.909l-7.381.21zM41.595 47.5v18.683h4.401V46.918l-4.4.581zm5.223 14.375v4.308h6.388v-4.489l-6.388.181zm37.669-18.089c-1.601-1.42-3.948-2.003-6.515-1.656v5.204c1.04-.054 1.882.308 2.257 1.037.593 1.15-.019 2.876-1.461 4.475-2.226 2.467-8.146 7.517-8.146 7.517l8.498-.262c5.193-4.765 7.057-7.657 7.392-11.266.176-1.91-.562-3.75-2.025-5.049zm2.324 22.397v-5.445l-17.237.488 17.237 4.957zm-17.237-4.958l.002 4.958H86.81l-17.237-4.958zm7.407-18.978c-5.008 1.001-7.467 4.46-7.183 10.106l5.34-.444c-.244-3.19.795-3.947 1.845-4.363l-.002-5.3zM54 104.775C25.958 104.775 3.225 82.042 3.225 54H.775c0 29.395 23.83 53.225 53.225 53.225v-2.45zM104.775 54c0 28.042-22.733 50.775-50.775 50.775v2.45c29.395 0 53.225-23.83 53.225-53.225h-2.45zM54 3.225c28.042 0 50.775 22.733 50.775 50.775h2.45C107.225 24.605 83.395.775 54 .775v2.45zm0-2.45C24.605.775.775 24.605.775 54h2.45C3.225 25.958 25.958 3.225 54 3.225V.775z" fill="#fff"/></svg>
